X: 23
M:2/4
L:1/8
K:D
{^e=f}^f/a/f/e/ d/B/A/d/|{e=f}^f/a/f/e/ d/B/A|F/F/E/F/ D/B,/A,/D/|
E/c/c/B/ c<a e/e/|c/B/A/B/ c<e|ae/f/ d/B/A/B/|d3||([d/f/]e/)|[Fd][Fd] [F/d/]B/A/F/|
c/B/A/B/ c<[ce]|[ca](e/f/) d/B/A/B/|[F4d4]||



